X:585
T:I Am a Poor, Wayfaring Stranger
S:John Garst
Z:Nigel Gatherer
L:1/8
M:3/4
K:Dm
DDA | A3 GAG | F D2
DDA | G3 FDC | D3
AAc | d3 Acd | A G2
AAc | d3 Acc | A3
DDA | A3 GAG | F D2
DDA | G3 FDC | D3 |]
